X: 19377
T: Jack's The Lad
R: hornpipe
M: 4/4
K: Gmajor
BA|B2B,2 B,2FE|DFBA BdcB|c2C2 C2cB|Acf2 f2ga|
bagf gfed|edcB BAGF|GBAc Bdce|d2B2 B2:|
|:FE|DFBF DFBF|G2E2 E2GF|=EGcG EGcG|A2F2 F2cd|
edef gfed|edcB BAGF|GBAc Bdce|d2B2 B2:|
GF|G2G, G,DC|B,DGF GBAG|A2A,2 A,2AG|FAd2 d2ef|
gfed edcB|cBAG GFED|EGFA GBAc|B2G2 G2:|
|:DC|B,DGD B,DGD|E2C2 C2ED|^CEAE CEAE|F2D2 D2AB|
cBcd edcB|cBAG GFED|EGFA GBAc|B2G2 G2:|

